X:2455
T:Hanners? Jigg
O:england
R:Jig
M:6/8
A:Westmorland
N:P2 2/2
K:C
c2c c2f|ege c3|G2G +G2B2+c|dBG G3|\
c2c c2f|ege c3|AcA BdB|c3C3:|
|:g2g gfg|c2c c3|a2a aga|d2d d3|\
g2g gfg|c2c c3|AcA BdB|c3C3:|


